dist/svg/inject.svg

<svg width="16" height="16" viewBox="0 0 16 16" fill="rgb(34, 34, 34)" xmlns="http://www.w3.org/2000/svg"><title>inject</title><path d="M15.3 3.7L14.3 2.7L13 4L12 3L13.3 1.7L12.3 0.7L13 0L16 3L15.3 3.7ZM9.30002 1.7L14.3 6.7L13.6 7.4L12.6 6.4L6.00002 13H4.10002L0.500024 15.9C0.400024 16 0.200024 16 0.100024 15.9C2.44156e-05 15.8 2.44156e-05 15.6 0.100024 15.5L3.00002 11.9V10L9.60003 3.4L8.60003 2.4L9.30002 1.7ZM10 4.4L6.40002 8H9.60003L11.6 6L10 4.4Z" fill="rgb(34, 34, 34)" fill-opacity="1.00"/></svg>

<!-- Generated by Trend Micro Style Portal -->
<svg version="1.1" xmlns="http://www.w3.org/2000/svg" width="16" height="16" viewBox="0 0 16 16">
  <title>inject</title>
  <path fill="rgb(34,34,34)" d="M15.3 3.7l-1-1-1.3 1.3-1-1 1.3-1.3-1-1 0.7-0.7 3 3-0.7 0.7zM9.3 1.7l5 5-0.7 0.7-1-1-6.6 6.6h-1.9l-3.6 2.9c-0.1 0.1-0.3 0.1-0.4 0s-0.1-0.3 0-0.4l2.9-3.6v-1.9l6.6-6.6-1-1 0.7-0.7zM10 4.4l-3.6 3.6h3.2l2-2-1.6-1.6z"></path>
</svg>
